X:289
T:De Bruyd werdt na bedt gebrocht
Z:Jack Campin, http://www.campin.me.uk/
F:Jack Campin's Nine-Note Tunebook
% last edit 03-02-2013
B:Oude en Nieuwe Hollantse Boeren Lieties en Contredansen - Sesde Deel
M:C
L:1/8
Q:1/4=140
K:F
A2A2 AGAB| c2c2 cBcd|~B2BA BABc|~A2A2 A4:|
A2A2 AcBA|~G2G2 G4  | F2F2 FAGF|~E2E2 E4:|
C2C2 C2DE| F2F2 F4  | G2G2 GABc|~A2A2 A4:|
c2c2 cBcd|~B2BA BABc|AGAB ~G3E | FEFG F4:|

